X:205
T:Rufty Tufty
L:1/8
M:2/2
N:Playford
Z:Andy Hornby
%%TUNEURL: http://www.leeds.ac.uk/music/Info/RRTuneBk/gettune/00000dac.html
%%ID:00000dac
K:G
d4d2e2|f4e2f2|g3g f2e2|1d4d4:|2d4d2
|:ef|g2f2e2d2|d2c2B3c|d2d2c2B2|A4G2:|
B3c d2d2|e2c2d4|B3c d2d2|e2c2d2Bc|d2d2c2B2|A4G4:|
